chaosknoten/Chaosknoten.svg

<?xml version="1.0" encoding="ISO-8859-1" standalone="yes"?>
<svg width="655.055" height="470.179">
<g>
<path style="stroke:none; fill:#000000" d="M 294.407 7.95792C 300.62 8.98492 313.524 28.3799 311.961 63.9999C 307.661 66.2869 302.672 64.9449 299.414 64.8939C 289.23 62.2119 298.736 35.3389 284.461 25.3479C 263.79 10.8809 119.447 14.4069 45.5808 21.1209C 13.592 24.0289 17.478 87.0639 16.8569 120.43C 16.34 148.198 17.3017 178.549 28.2758 209.36C 37.7226 235.884 72.5747 226.769 104.247 227.931C 161.225 227.931 265.228 229.814 277.777 224.806C 286.869 221.177 290.573 207.834 292.486 199.231C 295.837 184.162 292.318 173.624 304.308 173.907C 310.621 174.056 311.863 179.764 310.9 190.679C 309.899 202.025 306.507 217.12 301.772 234.684C 298.351 247.372 274.76 244.813 259.144 244.813C 180.218 242.704 100.45 245.236 24.0554 243.125C 1.9155 242.514 1.46946 137.911 0.285625 118.923C -1.10525 96.6069 2.51438 7.01993 21.3615 6.01993C 35.3674 5.27692 113.628 0.0309143 159.959 0.0189209C 205.016 0.00692749 252.988 1.11093 294.407 7.95792"/>
<path style="stroke:none; fill:#000000" d="M 223.69 24.0759C 229.177 39.6919 215.671 64.1719 235.93 72.6129C 309.368 85.2749 395.047 57.8409 457.512 96.2479C 474.394 112.708 487.056 131.701 495.075 151.96L 495.075 142.675C 485.79 116.929 466.797 94.9819 448.648 72.6129C 453.713 65.8599 459.622 73.8789 464.686 75.9889C 483.257 99.2019 502.249 122.838 509.425 150.694C 510.69 152.382 513.223 155.759 515.333 152.804L 518.288 149.85C 511.957 119.884 492.964 95.4039 476.926 69.6579C 484.101 65.0149 491.276 73.0349 497.185 77.6769C 509.425 97.9359 522.931 118.195 527.573 141.83C 530.949 144.362 535.17 139.72 536.858 136.765C 534.326 118.194 527.994 101.734 520.397 86.1179C 521.663 84.0079 521.663 81.0529 524.618 81.0529C 542.767 90.7599 542.345 111.864 548.675 128.324C 554.584 127.902 557.538 109.331 565.135 120.305C 567.667 127.058 555.006 137.61 568.09 138.454C 561.759 168.842 528.416 192.478 499.294 199.231C 484.1 202.607 463.841 207.249 452.445 195.433C 454.555 189.946 462.152 189.102 467.639 188.258C 501.404 186.992 533.481 174.752 553.74 147.74L 552.896 146.896C 520.819 168.421 481.146 189.102 441.472 173.064C 438.096 172.22 436.407 167.577 438.518 165.045C 439.362 162.513 436.83 161.247 435.563 160.824C 368.455 163.778 297.967 154.5 232.97 165.051C 225.84 166.209 225.036 172.797 223.686 178.133C 220.272 191.644 228.896 210.78 220.862 217.979C 220.862 217.979 214.926 219.72 210.606 217.802C 209.595 212.193 206.379 180.658 213.554 163.776C 222.631 142.419 303.508 149.623 326.888 149.15C 369.61 148.287 419.526 146.896 459.622 149.851C 448.226 138.455 430.5 138.033 413.195 138.455C 358.327 137.611 272.591 137.896 237.819 135.989C 186.388 133.167 167.977 184.882 135.478 218.647L 120.284 218.647C 140.543 190.37 162.381 158.125 190.346 133.391C 194.855 129.403 197.991 128.776 205.54 126.639C 226.565 120.686 430.499 127.483 430.499 127.483C 439.784 129.593 449.914 130.859 458.777 134.657C 453.712 121.573 437.252 118.197 424.168 116.51C 351.151 114.4 277.291 116.088 205.54 111.445C 186.125 105.536 175.996 81.4789 160.801 66.7059L 128.302 25.3439L 144.762 26.1879C 165.865 50.6669 180.337 80.6939 207.649 100.048C 213.669 104.314 342.251 103.075 410.233 103.002C 421.193 102.99 444.003 110.177 458.775 118.197C 461.307 114.821 457.087 111.866 454.554 109.334C 423.743 79.7899 360.192 88.9909 337.226 89.0699C 296.941 89.2099 248.993 97.5919 215.667 76.8349C 207.526 71.7639 208.915 40.9599 212.714 24.0769L 223.687 24.0769"/>
<path style="stroke:none; fill:#000000" d="M 575.267 153.649C 568.092 184.038 545.723 211.471 517.444 226.666C 499.717 230.465 476.926 242.282 462.576 224.556C 472.284 215.693 490.01 221.602 501.406 214.426C 530.95 205.985 555.264 179.952 570.202 153.649C 572.112 152.328 573.397 150.826 575.267 153.649"/>
<path style="stroke:none; fill:#000000" d="M 584.142 179.84C 579.077 206.008 566.415 233.442 539.403 246.526C 527.585 252.013 509.015 258.344 498.041 248.636L 498.041 244.415C 539.825 246.103 560.928 202.209 577.811 172.665C 582.454 172.243 582.876 176.463 584.142 179.84"/>
<path style="stroke:none; fill:#000000" d="M 611.567 280.265C 631.446 284.489 650.816 264.65 655.037 290.396C 638.154 299.259 615.363 296.727 597.637 291.662C 593.838 299.259 599.325 307.7 597.637 316.986C 595.105 341.888 585.819 365.523 563.872 380.717C 557.515 384.017 556.195 385.964 552.441 386.626C 553.579 380.924 553.968 376.273 554.941 372.727C 559.287 369.807 578.444 357.507 579.066 341.043C 588.773 306.434 578.222 272.247 555.008 246.923L 570.202 232.995C 579.065 250.721 589.098 275.49 611.566 280.264"/>
<path style="stroke:none; fill:#000000" d="M 542.769 257.054C 567.248 304.325 544.457 359.615 538.548 408.152C 541.08 426.301 543.613 444.871 558.807 457.533C 557.119 461.754 559.651 472.305 552.898 469.773C 531.373 458.377 524.198 435.586 524.62 411.951C 523.776 370.167 546.145 336.824 540.658 294.618L 536.86 286.6C 519.555 305.17 500.141 328.384 501.407 357.505L 490.011 359.615C 477.349 319.097 521.666 295.872 527.575 259.575C 527.575 259.575 537.282 255.789 542.769 257.054"/>
</g>
</svg>

<?xml version="1.0" encoding="UTF-8" standalone="no"?>
<svg
   xmlns:dc="http://purl.org/dc/elements/1.1/"
   xmlns:cc="http://creativecommons.org/ns#"
   xmlns:rdf="http://www.w3.org/1999/02/22-rdf-syntax-ns#"
   xmlns:svg="http://www.w3.org/2000/svg"
   xmlns="http://www.w3.org/2000/svg"
   xmlns:sodipodi="http://sodipodi.sourceforge.net/DTD/sodipodi-0.dtd"
   xmlns:inkscape="http://www.inkscape.org/namespaces/inkscape"
   width="354.33069"
   height="354.33069"
   id="svg2"
   version="1.1"
   inkscape:version="0.48.3.1 r9886"
   sodipodi:docname="Chaosknoten.svg">
  <metadata
     id="metadata22">
    <rdf:RDF>
      <cc:Work
         rdf:about="">
        <dc:format>image/svg+xml</dc:format>
        <dc:type
           rdf:resource="http://purl.org/dc/dcmitype/StillImage" />
      </cc:Work>
    </rdf:RDF>
  </metadata>
  <defs
     id="defs20" />
  <sodipodi:namedview
     pagecolor="#ffffff"
     bordercolor="#666666"
     borderopacity="1"
     objecttolerance="10"
     gridtolerance="10"
     guidetolerance="10"
     inkscape:pageopacity="0"
     inkscape:pageshadow="2"
     inkscape:window-width="1680"
     inkscape:window-height="886"
     id="namedview18"
     showgrid="false"
     units="mm"
     inkscape:zoom="1.003873"
     inkscape:cx="297.63336"
     inkscape:cy="250.45405"
     inkscape:window-x="0"
     inkscape:window-y="27"
     inkscape:window-maximized="1"
     inkscape:current-layer="svg2" />
  <g
     id="g4"
     transform="matrix(0.52399425,0,0,0.52399425,6.0089559,6.1606259)">
    <path
       style="fill:#000000;stroke:none"
       d="m 294.407,7.95792 c 6.213,1.027 19.117,20.42198 17.554,56.04198 -4.3,2.287 -9.289,0.945 -12.547,0.894 -10.184,-2.682 -0.678,-29.555 -14.953,-39.546 C 263.79,10.8809 119.447,14.4069 45.5808,21.1209 13.592,24.0289 17.478,87.0639 16.8569,120.43 c -0.5169,27.768 0.4448,58.119 11.4189,88.93 9.4468,26.524 44.2989,17.409 75.9712,18.571 56.978,0 160.981,1.883 173.53,-3.125 9.092,-3.629 12.796,-16.972 14.709,-25.575 3.351,-15.069 -0.168,-25.607 11.822,-25.324 6.313,0.149 7.555,5.857 6.592,16.772 -1.001,11.346 -4.393,26.441 -9.128,44.005 -3.421,12.688 -27.012,10.129 -42.628,10.129 C 180.218,242.704 100.45,245.236 24.0554,243.125 1.9155,242.514 1.46946,137.911 0.285625,118.923 -1.10525,96.6069 2.51438,7.01993 21.3615,6.01993 35.3674,5.27692 113.628,0.0309143 159.959,0.0189209 205.016,0.00692749 252.988,1.11093 294.407,7.95792"
       id="path6"
       inkscape:connector-curvature="0" />
    <path
       style="fill:#000000;stroke:none"
       d="m 223.69,24.0759 c 5.487,15.616 -8.019,40.096 12.24,48.537 73.438,12.662 159.117,-14.772 221.582,23.635 16.882,16.4601 29.544,35.4531 37.563,55.7121 l 0,-9.285 c -9.285,-25.746 -28.278,-47.6931 -46.427,-70.0621 5.065,-6.753 10.974,1.266 16.038,3.376 18.571,23.213 37.563,46.8491 44.739,74.7051 1.265,1.688 3.798,5.065 5.908,2.11 l 2.955,-2.954 c -6.331,-29.966 -25.324,-54.4461 -41.362,-80.1921 7.175,-4.643 14.35,3.377 20.259,8.019 12.24,20.259 25.746,40.5181 30.388,64.1531 3.376,2.532 7.597,-2.11 9.285,-5.065 -2.532,-18.571 -8.864,-35.031 -16.461,-50.6471 1.266,-2.11 1.266,-5.065 4.221,-5.065 18.149,9.707 17.727,30.8111 24.057,47.2711 5.909,-0.422 8.863,-18.993 16.46,-8.019 2.532,6.753 -10.129,17.305 2.955,18.149 -6.331,30.388 -39.674,54.024 -68.796,60.777 -15.194,3.376 -35.453,8.018 -46.849,-3.798 2.11,-5.487 9.707,-6.331 15.194,-7.175 33.765,-1.266 65.842,-13.506 86.101,-40.518 l -0.844,-0.844 c -32.077,21.525 -71.75,42.206 -111.424,26.168 -3.376,-0.844 -5.065,-5.487 -2.954,-8.019 0.844,-2.532 -1.688,-3.798 -2.955,-4.221 -67.108,2.954 -137.596,-6.324 -202.593,4.227 -7.13,1.158 -7.934,7.746 -9.284,13.082 -3.414,13.511 5.21,32.647 -2.824,39.846 0,0 -5.936,1.741 -10.256,-0.177 -1.011,-5.609 -4.227,-37.144 2.948,-54.026 9.077,-21.357 89.954,-14.153 113.334,-14.626 42.722,-0.863 92.638,-2.254 132.734,0.701 -11.396,-11.396 -29.122,-11.818 -46.427,-11.396 -54.868,-0.844 -140.604,-0.559 -175.376,-2.466 -51.431,-2.822 -69.842,48.893 -102.341,82.658 l -15.194,0 c 20.259,-28.277 42.097,-60.522 70.062,-85.256 4.509,-3.988 7.645,-4.615 15.194,-6.752 21.025,-5.953 224.959,0.844 224.959,0.844 9.285,2.11 19.415,3.376 28.278,7.174 -5.065,-13.084 -21.525,-16.46 -34.609,-18.147 -73.017,-2.11 -146.877,-0.422 -218.628,-5.065 -19.415,-5.909 -29.544,-29.9661 -44.739,-44.7391 l -32.499,-41.362 16.46,0.844 c 21.103,24.479 35.575,54.506 62.887,73.8601 6.02,4.266 134.602,3.027 202.584,2.954 10.96,-0.012 33.77,7.175 48.542,15.195 2.532,-3.376 -1.688,-6.331 -4.221,-8.863 -30.811,-29.5441 -94.362,-20.3431 -117.328,-20.2641 -40.285,0.14 -88.233,8.522 -121.559,-12.235 -8.141,-5.071 -6.752,-35.875 -2.953,-52.758 l 10.973,0"
       id="path8"
       inkscape:connector-curvature="0" />
    <path
       style="fill:#000000;stroke:none"
       d="m 575.267,153.649 c -7.175,30.389 -29.544,57.822 -57.823,73.017 -17.727,3.799 -40.518,15.616 -54.868,-2.11 9.708,-8.863 27.434,-2.954 38.83,-10.13 29.544,-8.441 53.858,-34.474 68.796,-60.777 1.91,-1.321 3.195,-2.823 5.065,0"
       id="path10"
       inkscape:connector-curvature="0" />
    <path
       style="fill:#000000;stroke:none"
       d="m 584.142,179.84 c -5.065,26.168 -17.727,53.602 -44.739,66.686 -11.818,5.487 -30.388,11.818 -41.362,2.11 l 0,-4.221 c 41.784,1.688 62.887,-42.206 79.77,-71.75 4.643,-0.422 5.065,3.798 6.331,7.175"
       id="path12"
       inkscape:connector-curvature="0" />
    <path
       style="fill:#000000;stroke:none"
       d="m 611.567,280.265 c 19.879,4.224 39.249,-15.615 43.47,10.131 -16.883,8.863 -39.674,6.331 -57.4,1.266 -3.799,7.597 1.688,16.038 0,25.324 -2.532,24.902 -11.818,48.537 -33.765,63.731 -6.357,3.3 -7.677,5.247 -11.431,5.909 1.138,-5.702 1.527,-10.353 2.5,-13.899 4.346,-2.92 23.503,-15.22 24.125,-31.684 9.707,-34.609 -0.844,-68.796 -24.058,-94.12 l 15.194,-13.928 c 8.863,17.726 18.896,42.495 41.364,47.269"
       id="path14"
       inkscape:connector-curvature="0" />
    <path
       style="fill:#000000;stroke:none"
       d="m 542.769,257.054 c 24.479,47.271 1.688,102.561 -4.221,151.098 2.532,18.149 5.065,36.719 20.259,49.381 -1.688,4.221 0.844,14.772 -5.909,12.24 -21.525,-11.396 -28.7,-34.187 -28.278,-57.822 -0.844,-41.784 21.525,-75.127 16.038,-117.333 L 536.86,286.6 c -17.305,18.57 -36.719,41.784 -35.453,70.905 l -11.396,2.11 c -12.662,-40.518 31.655,-63.743 37.564,-100.04 0,0 9.707,-3.786 15.194,-2.521"
       id="path16"
       inkscape:connector-curvature="0" />
  </g>
</svg>
